X: 1372
M: 3/8
L: 1/16
K: G
d2 |\
d4{f}g2 | d2c'ba2 | d3af2 | gdbgd'2 |\
d4{f}g2 | d2c'ba2 | d2c'ba2 | d3af2 | g4 :|
|: !f!AG |\
.F2(DFAd) | (fed^cBA) | .G2(EG^cG) | (ed^cBAG) |\
.F2(DFAd) | (fed^cBA) | G2(EG^ce) | d4 :|
|: dc |\

